packages/ffe-icons/icons/filled/md/temple_hindu.svg

<svg xmlns="http://www.w3.org/2000/svg" height="24" viewBox="0 -960 960 960" width="24"><path d="m319.693-669.999 49.308-163.462V-880q0-12.75 8.628-21.375 8.629-8.624 21.384-8.624 12.756 0 21.371 8.624 8.615 8.625 8.615 21.375v50.001h101.002V-880q0-12.75 8.628-21.375 8.629-8.624 21.384-8.624 12.756 0 21.371 8.624 8.615 8.625 8.615 21.375v41.539l50.308 168.462H319.693Zm-229.692 520V-480q0-12.75 8.628-21.374 8.629-8.625 21.384-8.625 12.756 0 21.371 8.625 8.615 8.624 8.615 21.374v50.001h97.309l6.155-20.002h453.074l6.155 20.002h97.309V-480q0-12.75 8.628-21.374 8.629-8.625 21.384-8.625 12.756 0 21.371 8.625 8.615 8.624 8.615 21.374v330.001q0 24.538-17.73 42.268t-42.268 17.73H566.154q-15.365 0-25.759-10.394t-10.394-25.759V-240q0-20.846-14.577-35.424-14.578-14.577-35.424-14.577t-35.424 14.577Q429.999-260.846 429.999-240v113.846q0 15.365-10.394 25.759t-25.759 10.394H149.999q-24.538 0-42.268-17.73t-17.73-42.268Zm181.692-360 29.77-100.002h357.074l29.77 100.002H271.693Z"/></svg>

<svg xmlns="http://www.w3.org/2000/svg" height="24" viewBox="0 -960 960 960" width="24"><path d="M319.69-670 369-833.46V-880q0-12.75 8.63-21.37 8.63-8.63 21.38-8.63 12.76 0 21.37 8.63Q429-892.75 429-880v50h101v-50q0-12.75 8.63-21.37 8.63-8.63 21.38-8.63 12.76 0 21.37 8.63Q590-892.75 590-880v41.54L640.31-670H319.69ZM90-150v-330q0-12.75 8.63-21.37 8.63-8.63 21.38-8.63 12.76 0 21.37 8.63Q150-492.75 150-480v50h97.31l6.15-20h453.08l6.15 20H810v-50q0-12.75 8.63-21.37 8.63-8.63 21.38-8.63 12.76 0 21.37 8.63Q870-492.75 870-480v330q0 24.54-17.73 42.27Q834.54-90 810-90H566.15q-15.36 0-25.76-10.39Q530-110.79 530-126.15V-240q0-20.85-14.58-35.42Q500.85-290 480-290t-35.42 14.58Q430-260.85 430-240v113.85q0 15.36-10.39 25.76Q409.21-90 393.85-90H150q-24.54 0-42.27-17.73Q90-125.46 90-150Zm181.69-360 29.77-100h357.08l29.77 100H271.69Z"/></svg>
